img/svg/certif-logo4.svg

<svg width="122" height="42" viewBox="0 0 122 42" fill="none" xmlns="http://www.w3.org/2000/svg">
<path fill-rule="evenodd" clip-rule="evenodd" d="M0 7.78652C0 3.48614 3.48614 0 7.78652 0H99.809C104.109 0 107.596 3.48614 107.596 7.78652V10.8539H106.18V7.78652C106.18 4.26803 103.327 1.41573 99.809 1.41573H7.78652C4.26803 1.41573 1.41573 4.26803 1.41573 7.78652V34.2135C1.41573 37.732 4.26803 40.5843 7.78652 40.5843H99.809C103.327 40.5843 106.18 37.732 106.18 34.2135V31.1461H107.596V34.2135C107.596 38.5139 104.109 42 99.809 42H7.78652C3.48614 42 0 38.5139 0 34.2135V7.78652Z" fill="black"/>
<path fill-rule="evenodd" clip-rule="evenodd" d="M99.3681 23.8412C98.0012 22.63 93.2511 18.5336 85.6516 20.437C85.6516 20.437 94.59 25.3743 100.201 36.573C104.915 26.5976 112.459 11.5078 121.517 4.0112C107.697 9.78557 100.878 20.8233 99.3681 23.8412ZM80.8388 10.2055C80.8388 11.3917 80.538 12.3245 79.9364 13.0038C79.3382 13.6831 78.5052 14.0227 77.4372 14.0227C76.3456 14.0227 75.5024 13.6898 74.9076 13.0241C74.3162 12.3549 74.0205 11.412 74.0205 10.1954C74.0205 8.98885 74.3179 8.0544 74.9127 7.39201C75.5075 6.72623 76.3524 6.39335 77.4474 6.39335C78.5119 6.39335 79.3433 6.7313 79.9415 7.40722C80.5397 8.08313 80.8388 9.01589 80.8388 10.2055ZM74.933 10.2055C74.933 11.2092 75.1459 11.9713 75.5717 12.4918C76.0009 13.0088 76.6228 13.2674 77.4372 13.2674C78.2585 13.2674 78.8786 13.0088 79.2977 12.4918C79.7168 11.9747 79.9263 11.2126 79.9263 10.2055C79.9263 9.20852 79.7168 8.45319 79.2977 7.9395C78.882 7.42242 78.2652 7.16389 77.4474 7.16389C76.6261 7.16389 76.0009 7.42411 75.5717 7.94457C75.1459 8.46164 74.933 9.21528 74.933 10.2055ZM10.9913 7.99019C11.4644 7.44608 12.1082 7.17403 12.9227 7.17403C13.4837 7.17403 14.0447 7.30583 14.6057 7.56943L14.9707 6.82931C14.3894 6.54543 13.7101 6.40348 12.9328 6.40348C12.2028 6.40348 11.5675 6.55894 11.0268 6.86986C10.4894 7.18078 10.0771 7.62351 9.78984 8.19803C9.50596 8.77256 9.36401 9.44171 9.36401 10.2055C9.36401 11.4255 9.65973 12.3667 10.2511 13.0291C10.846 13.6915 11.6892 14.0227 12.7808 14.0227C13.5344 14.0227 14.1681 13.9264 14.6818 13.7338V12.9784C14.0194 13.1643 13.4296 13.2572 12.9126 13.2572C12.071 13.2572 11.4222 12.9936 10.9659 12.4664C10.5131 11.9358 10.2866 11.1856 10.2866 10.2156C10.2866 9.27274 10.5215 8.53092 10.9913 7.99019ZM17.1294 13.9213H21.261V13.1508H17.9912V10.4235H21.0633V9.66307H17.9912V7.27541H21.261V6.50994H17.1294V13.9213ZM24.6008 10.8392V13.9213H23.7391V6.50994H25.7719C26.681 6.50994 27.3518 6.68399 27.7844 7.03208C28.2204 7.38018 28.4383 7.90401 28.4383 8.60358C28.4383 9.58365 27.9415 10.246 26.948 10.5908L28.9605 13.9213H27.9415L26.147 10.8392H24.6008ZM24.6008 10.099H25.782C26.3903 10.099 26.8364 9.97906 27.1203 9.73911C27.4042 9.49579 27.5461 9.13248 27.5461 8.64921C27.5461 8.15917 27.4008 7.806 27.1102 7.58971C26.8229 7.37342 26.3599 7.26527 25.7212 7.26527H24.6008V10.099ZM32.4068 13.9213H33.2686V7.27541H35.6157V6.50994H30.0597V7.27541H32.4068V13.9213ZM37.5666 6.50994H38.4284V13.9213H37.5666V6.50994ZM41.2968 13.9213H42.1586V10.753H45.2307V9.98751H42.1586V7.27541H45.4284V6.50994H41.2968V13.9213ZM47.4908 6.50994H48.3526V13.9213H47.4908V6.50994ZM52.463 7.99019C52.9361 7.44608 53.5799 7.17403 54.3944 7.17403C54.9554 7.17403 55.5164 7.30583 56.0774 7.56943L56.4424 6.82931C55.8611 6.54543 55.1819 6.40348 54.4046 6.40348C53.6746 6.40348 53.0392 6.55894 52.4985 6.86986C51.9611 7.18078 51.5488 7.62351 51.2616 8.19803C50.9777 8.77256 50.8357 9.44171 50.8357 10.2055C50.8357 11.4255 51.1314 12.3667 51.7229 13.0291C52.3177 13.6915 53.1609 14.0227 54.2525 14.0227C55.0061 14.0227 55.6398 13.9264 56.1535 13.7338V12.9784C55.4911 13.1643 54.9014 13.2572 54.3843 13.2572C53.5428 13.2572 52.8939 12.9936 52.4376 12.4664C51.9848 11.9358 51.7584 11.1856 51.7584 10.2156C51.7584 9.27274 51.9932 8.53092 52.463 7.99019ZM63.2599 13.9213L62.3373 11.5641H59.3666L58.4542 13.9213H57.5822L60.5123 6.47952H61.2372L64.1521 13.9213H63.2599ZM62.0686 10.7885L61.2068 8.49206C61.0953 8.20141 60.9804 7.84487 60.8621 7.42242C60.7877 7.74686 60.6813 8.10341 60.5427 8.49206L59.6708 10.7885H62.0686ZM70.9189 12.9531C71.5846 12.3042 71.9175 11.3681 71.9175 10.1447C71.9175 8.99899 71.5982 8.10679 70.9594 7.46805C70.3207 6.82931 69.4251 6.50994 68.2727 6.50994H66.0016V13.9213H68.0547C69.3017 13.9213 70.2565 13.5986 70.9189 12.9531ZM70.2751 7.99019C70.7617 8.48023 71.005 9.20852 71.005 10.1751C71.005 11.1653 70.7465 11.9139 70.2294 12.4208C69.7124 12.9244 68.9401 13.1761 67.9127 13.1761H66.8634V7.25514H68.1155C69.0719 7.25514 69.7918 7.50015 70.2751 7.99019ZM15.3945 29.7082V36.5731H10.2975V17.7077H16.4784C21.6055 17.7077 24.1691 19.5659 24.1691 23.2822C24.1691 25.4672 23.1023 27.1576 20.9689 28.3533L26.4659 36.5731H20.685L16.6849 29.7082H15.3945ZM15.3945 25.8758H16.3494C18.1301 25.8758 19.0204 25.0887 19.0204 23.5144C19.0204 22.2154 18.1473 21.566 16.401 21.566H15.3945V25.8758ZM39.9112 36.5731H28.7107V17.7077H39.9112V21.7982H33.8077V24.7661H39.4595V28.8566H33.8077V32.418H39.9112V36.5731ZM46.969 36.5731H52.066V21.8756H56.6598V17.7077H42.3624V21.8756H46.969V36.5731ZM59.8852 36.5731V17.7077H65.008V36.5731H59.8852ZM69.6271 36.5731H80.8276V32.418H74.7241V28.8566H80.3759V24.7661H74.7241V21.7982H80.8276V17.7077H69.6271V36.5731Z" fill="black"/>
</svg>

<svg width="122" height="42" viewBox="0 0 122 42" fill="none" xmlns="http://www.w3.org/2000/svg"><path fill-rule="evenodd" clip-rule="evenodd" d="M0 7.787C0 3.487 3.486 0 7.787 0h92.022c4.3 0 7.787 3.486 7.787 7.787v3.067h-1.416V7.787a6.371 6.371 0 00-6.371-6.371H7.787a6.37 6.37 0 00-6.371 6.37v26.428a6.37 6.37 0 006.37 6.37H99.81a6.371 6.371 0 006.371-6.37v-3.068h1.416v3.068c0 4.3-3.487 7.786-7.787 7.786H7.787A7.786 7.786 0 010 34.214V7.787z" fill="#000"/><path fill-rule="evenodd" clip-rule="evenodd" d="M99.368 23.841c-1.367-1.211-6.117-5.307-13.716-3.404 0 0 8.938 4.937 14.549 16.136 4.714-9.975 12.258-25.065 21.316-32.562-13.82 5.775-20.639 16.812-22.149 19.83zm-18.53-13.636c0 1.187-.3 2.12-.902 2.799-.598.68-1.43 1.019-2.499 1.019-1.091 0-1.935-.333-2.53-.999-.59-.67-.886-1.612-.886-2.829 0-1.206.297-2.14.892-2.803.594-.666 1.44-.999 2.534-.999 1.065 0 1.896.338 2.495 1.014.598.676.897 1.609.897 2.799zm-5.905 0c0 1.004.213 1.766.639 2.287.429.517 1.05.775 1.865.775.822 0 1.442-.258 1.86-.775.42-.517.63-1.28.63-2.287 0-.996-.21-1.752-.63-2.266-.415-.517-1.032-.775-1.85-.775-.82 0-1.446.26-1.875.78-.426.518-.639 1.271-.639 2.262zM10.991 7.99c.473-.544 1.117-.816 1.932-.816.56 0 1.122.132 1.683.395l.365-.74c-.582-.284-1.26-.426-2.038-.426-.73 0-1.365.156-1.906.467-.538.31-.95.754-1.237 1.328-.284.575-.426 1.244-.426 2.008 0 1.22.296 2.16.887 2.823.595.662 1.438.994 2.53.994.753 0 1.387-.097 1.9-.29v-.755c-.662.186-1.251.28-1.768.28-.842 0-1.49-.264-1.947-.792-.453-.53-.68-1.28-.68-2.25 0-.943.236-1.685.705-2.226zm6.138 5.931h4.132v-.77h-3.27v-2.727h3.072v-.76h-3.072v-2.39h3.27V6.51h-4.132v7.411zm7.472-3.082v3.082h-.862V6.51h2.033c.909 0 1.58.174 2.012.522.436.348.654.872.654 1.572 0 .98-.496 1.642-1.49 1.987l2.012 3.33h-1.018l-1.795-3.082h-1.546zm0-.74h1.181c.608 0 1.054-.12 1.338-.36.284-.243.426-.607.426-1.09 0-.49-.145-.843-.436-1.06-.287-.216-.75-.324-1.389-.324h-1.12V10.1zm7.806 3.822h.862V7.275h2.347V6.51H30.06v.765h2.347v6.646zm5.16-7.411h.861v7.411h-.861V6.51zm3.73 7.411h.862v-3.168h3.072v-.765h-3.072V7.275h3.27V6.51h-4.132v7.411zM47.49 6.51h.862v7.411h-.862V6.51zm4.972 1.48c.473-.544 1.117-.816 1.931-.816.561 0 1.122.132 1.683.395l.365-.74c-.58-.284-1.26-.426-2.037-.426-.73 0-1.366.156-1.907.467-.537.31-.95.754-1.236 1.328-.284.575-.426 1.244-.426 2.008 0 1.22.295 2.16.887 2.823.595.662 1.438.994 2.53.994.753 0 1.387-.097 1.9-.29v-.755c-.662.186-1.252.28-1.769.28-.841 0-1.49-.264-1.946-.792-.453-.53-.68-1.28-.68-2.25 0-.943.235-1.685.705-2.226zm10.797 5.931l-.923-2.357h-2.97l-.913 2.357h-.872l2.93-7.441h.725l2.915 7.441h-.892zm-1.191-3.132l-.862-2.297a11.92 11.92 0 01-.345-1.07c-.074.325-.18.681-.32 1.07l-.871 2.296h2.398zm8.85 2.164c.666-.649.999-1.585.999-2.808 0-1.146-.32-2.038-.959-2.677-.638-.639-1.534-.958-2.686-.958h-2.271v7.411h2.053c1.247 0 2.201-.322 2.864-.968zm-.644-4.963c.487.49.73 1.219.73 2.185 0 .99-.258 1.739-.776 2.246-.517.503-1.289.755-2.316.755h-1.05v-5.92h1.252c.957 0 1.677.244 2.16.734zm-54.88 21.718v6.865h-5.098V17.708h6.181c5.127 0 7.691 1.858 7.691 5.574 0 2.185-1.067 3.876-3.2 5.071l5.497 8.22h-5.781l-4-6.865h-1.29zm0-3.832h.954c1.781 0 2.671-.787 2.671-2.362 0-1.299-.873-1.948-2.619-1.948h-1.006v4.31zM39.91 36.573h-11.2V17.708h11.2v4.09h-6.103v2.968h5.651v4.09h-5.651v3.562h6.103v4.155zm7.058 0h5.097V21.876h4.594v-4.168H42.362v4.168h4.607v14.697zm12.916 0V17.708h5.123v18.865h-5.123zm9.742 0h11.2v-4.155h-6.103v-3.561h5.652v-4.09h-5.652v-2.969h6.104v-4.09h-11.2v18.865z" fill="#000"/></svg>
